X:16
T:A Swedish Waltz
R:vals
S:Luis Cadena, fiddler from Zaragoza, Aragon, Spain
Z:Manuel Waldesco
M:3/4
K:Am
Ac \
|: e3 fe2 | c2A2 Ac | e3 fe2 | c2A2 Ac | B4 B2 | d2c2B2 |1 A2 AB cd | e4 Ac :|2 A2 AB cB | A4 Ac ||
|: e3 fe2 | c2A2 ag | e3 fe2 | c2A2 Ac | B4 B2 | d2c2B2 |1 A2 AB cd | e4 Ac :|2 A2 AB cB | A4 A2 ||
|: a4a2 | a2g2f2 | e4e2 | e2d2c2 | B4B2 | d2c2B2 |1 A2 AB cd | e4A2 :|2 A2 AB cB | A4A2 ||
|: a4a2 | a2g2f2 | e4e2 | e2d2c2 | B4B2 | d2c2B2 |1 A2 AB cd | e4A2 :|2 A2 AB cB | A6 |]
